X:1
T:Title
L:1/8
M:12/4
K:F
V:1 treble nm="Choir Aahs"
V:1
 C4 D2 F2 E2 D2- D2 C4 B,2 C4 | F4 E2 D2 F4 C4 D2 E2 F4 |[M:14/4] C4 D2 C4 A,4 B,2 C2 D4 C6 | %3
 A,4 C2 A,4 F,4 B,2 A,2 G,4 F,6 |[M:12/4][K:treble] C4 D2 E2 F2 D2 C4[K:bass] B,2- B,2 A,4 | %5
 A,4 B,2 C2 D4 C2 B,2 A,2- A,2 G,4 | C4 D2 E2 C2 F2 E4 D2- D2 C4 | %7
[M:14/4][K:bass] A,4 B,2 C2 G,2 C2 A,4 G,4 F,8 |] %8

